X: 89
T:Minuet,A. JaW.089
M:3/4
Q:70
C:"A Good One"
S:James Winder Ms, Lancashire, 1835-41
R:Minuet
O:England
A:Wyresdale,Lancashire
H:1/4
Z:vmp.Chris Partington, Aug 2004
K:C
AEA|BEB|cd/c/B/A/|B/A/G/F/E|cGc|dGg|ef/e/d/e/|c3:|!
|:ef/e/d/c/|dcB|cd/c/B/A/|^G/A/BE|AEA|BeB|cd/c/B/c/|A3:|]
